X:1
T:Southport (Davies), SM
T:Southport (Davies), SM
T:J. Davies, 1889
T:Public Domain Courtesy of the Cyber Hymnal™
C:J. Davies, 1889
Z:Public Domain
Z:Courtesy of the Cyber Hymnal™
%%score ( 1 2 ) ( 3 4 )
L:1/8
Q:1/4=100
M:2/4
K:G
V:1 treble 
V:2 treble 
V:3 bass 
V:4 bass 
V:1
 [DG]2 [FA][GB] | [Gc]2 [FA]2 | [GB]4 | [Gd]2 [Ge][Gd] | [GB]2 G2 | [FA]4 | [GB]2 [Gc][GB] | %7
 [DG]2 [DB]2 | [DA][^CG] [DA]2 | [Dd]2 [DB][DG] | E2 [DF]2 | [DG]4 |] %12
V:2
 x4 | x4 | x4 | x4 | x2 G2 | x4 | x4 | x4 | x4 | x4 | E2 x2 | x4 |] %12
V:3
 [G,B,]2 [D,D][G,D] | [C,E]2 [D,D]2 | [G,,D]4 | [G,B,]2 C[B,D] | [G,D]2 (D^C) | [D,D]4 | %6
 [G,D]2 [G,E][G,D] | [G,B,]2 G,2 | [F,A,][E,A,] [D,F,]2 | [B,,G,]2 [G,,G,][B,,G,] | (G,C) [D,A,]2 | %11
 [G,,B,]4 |] %12
V:4
 x4 | x4 | x4 | x2 C x | x2 E,2 | x4 | x4 | x2 G,2 | x4 | x4 | C,2 x2 | x4 |] %12

